svgicons/cloud-saving-b.svg

<svg width="835" height="585" viewBox="0 0 835 585" fill="none" xmlns="http://www.w3.org/2000/svg">
<path fill-rule="evenodd" clip-rule="evenodd" d="M709.384 209.238C709.384 225.142 706.386 240.393 701.044 254.342C777.146 269.724 834.484 337.118 834.484 417.809C834.484 509.972 759.815 584.667 667.684 584.667H188.134C84.5352 584.667 0.483643 500.586 0.483643 396.952C0.483643 315.088 52.8693 245.477 125.844 219.797C125.714 216.277 125.584 212.758 125.584 209.238C125.584 94.0022 218.887 0.666504 334.084 0.666504C411.359 0.666504 478.731 42.6415 514.827 105.213C534.635 91.9165 558.612 84.0951 584.284 84.0951C653.349 84.0951 709.384 140.149 709.384 209.238ZM467.169 473.928V343.261H547.229C559.312 343.261 565.409 328.617 556.827 320.169L427.082 191.416C421.775 186.122 413.306 186.122 407.998 191.416L278.14 320.169C269.558 328.729 275.656 343.261 287.738 343.261H367.799V473.928C367.799 481.363 373.896 487.445 381.349 487.445H453.618C461.071 487.445 467.169 481.363 467.169 473.928Z" fill="#767676"/>
</svg>

<svg xmlns="http://www.w3.org/2000/svg" xml:space="preserve" style="fill-rule:evenodd;clip-rule:evenodd;stroke-linejoin:round;stroke-miterlimit:2" viewBox="0 0 1000 1000"><path d="M709.384 209.238c0 15.904-2.998 31.155-8.34 45.104 76.102 15.382 133.44 82.776 133.44 163.467 0 92.163-74.669 166.858-166.8 166.858h-479.55C84.535 584.667.484 500.586.484 396.952c0-81.864 52.385-151.475 125.36-177.155-.13-3.52-.26-7.039-.26-10.559 0-115.236 93.303-208.571 208.5-208.571 77.275 0 144.647 41.975 180.743 104.546 19.808-13.296 43.785-21.118 69.457-21.118 69.065 0 125.1 56.054 125.1 125.143Zm-242.215 264.69V343.261h80.06c12.083 0 18.18-14.644 9.598-23.092L427.082 191.416a13.451 13.451 0 0 0-19.084 0L278.14 320.169c-8.582 8.56-2.484 23.092 9.598 23.092h80.061v130.667c0 7.435 6.097 13.517 13.55 13.517h72.269c7.453 0 13.551-6.082 13.551-13.517Z" style="fill:#767676" transform="translate(0 149.701) scale(1.1976)"/></svg>
